;Generated with Cura_SteamEngine 18.04
M109 S210     ;Heatup to 210C
G21           ;metric values
G90           ;absolute positioning
G28           ;Home
G1 Z15.0 F300 ;move the platform down 15mm
G92 E0        ;zero the extruded length
G1 F200 E5    ;extrude 5mm of feed stock
G92 E0        ;zero the extruded length again

;Layer count: 198
;LAYER:0
M107
G0 F9000 X78.760 Y86.200 Z0.300
;TYPE:SKIRT
G1 F1200 X133.800 Y86.200 E1.51031
G1 X133.800 Y116.803 E2.35006
G1 X96.554 Y116.803 E3.37210
G1 X96.435 Y118.800 E3.42699
G1 X75.828 Y118.800 E3.99245
G1 X75.827 Y93.086 E4.69805
G1 X75.860 Y91.994 E4.72803
G1 X76.246 Y90.491 E4.77061
G1 X76.717 Y89.508 E4.80052
G1 X78.760 Y86.200 E4.90721
G1 F2700 E0.40721
G0 F9000 X83.027 Y93.400
;TYPE:WALL-INNER
G1 F2700 E4.90721
G1 F1200 X126.600 Y93.400 E6.10286
G1 X126.600 Y109.603 E6.54747
G1 X92.313 Y109.603 E7.48831
G1 X91.932 Y109.655 E7.49886
G1 X91.582 Y109.747 E7.50879
G1 X91.259 Y109.876 E7.51834
G1 X90.925 Y110.063 E7.52884
G1 X90.634 Y110.278 E7.53877
G1 X90.385 Y110.513 E7.54816
G1 X90.151 Y110.794 E7.55820
G1 X89.957 Y111.102 E7.56819
G1 X89.802 Y111.430 E7.57814
G1 X89.747 Y111.600 E7.58304
G1 X83.028 Y111.600 E7.76741
G1 X83.027 Y93.400 E8.26683
G0 F9000 X86.737 Y97.952
G1 F1200 X86.198 Y98.460 E8.28715
G1 X85.724 Y99.031 E8.30751
G1 X85.328 Y99.657 E8.32784
G1 X85.012 Y100.327 E8.34817
G1 X84.784 Y101.032 E8.36850
G1 X84.644 Y101.760 E8.38884
G1 X84.598 Y102.500 E8.40919
G1 X84.644 Y103.239 E8.42950
G1 X84.784 Y103.967 E8.44985
G1 X85.012 Y104.672 E8.47018
G1 X85.328 Y105.342 E8.49050
G1 X85.724 Y105.968 E8.51083
G1 X86.198 Y106.539 E8.53119
G1 X86.737 Y107.047 E8.55152
G1 X87.337 Y107.482 E8.57185
G1 X87.987 Y107.840 E8.59222
G1 X88.675 Y108.113 E8.61253
G1 X89.394 Y108.297 E8.63289
G1 X90.128 Y108.390 E8.65319
G1 X90.871 Y108.390 E8.67358
G1 X91.605 Y108.297 E8.69388
G1 X92.324 Y108.113 E8.71425
G1 X93.012 Y107.840 E8.73456
G1 X93.662 Y107.482 E8.75492
G1 X94.262 Y107.047 E8.77526
G1 X94.801 Y106.539 E8.79558
G1 X95.275 Y105.968 E8.81595
G1 X95.671 Y105.342 E8.83627
G1 X95.987 Y104.672 E8.85660
G1 X96.215 Y103.967 E8.87693
G1 X96.355 Y103.240 E8.89725
G1 X96.402 Y102.500 E8.91759
G1 X96.355 Y101.759 E8.93797
G1 X96.215 Y101.032 E8.95828
G1 X95.987 Y100.327 E8.97861
G1 X95.671 Y99.657 E8.99894
G1 X95.275 Y99.031 E9.01927
G1 X94.801 Y98.460 E9.03963
G1 X94.262 Y97.952 E9.05996
G1 X93.662 Y97.517 E9.08029
G1 X93.012 Y97.159 E9.10065
G1 X92.324 Y96.886 E9.12096
G1 X91.605 Y96.702 E9.14133
G1 X90.871 Y96.609 E9.16163
G1 X90.128 Y96.609 E9.18202
G1 X89.394 Y96.702 E9.20232
G1 X88.675 Y96.886 E9.22269
G1 X87.987 Y97.159 E9.24300
G1 X87.337 Y97.517 E9.26336
G1 X86.737 Y97.952 E9.28370
G0 F9000 X87.120 Y98.415
;TYPE:WALL-OUTER
G1 F1200 X86.636 Y98.871 E9.30194
G1 X86.211 Y99.384 E9.32022
G1 X85.855 Y99.946 E9.33848
G1 X85.571 Y100.548 E9.35674
G1 X85.366 Y101.181 E9.37500
G1 X85.241 Y101.835 E9.39327
G1 X85.199 Y102.500 E9.41156
G1 X85.241 Y103.164 E9.42981
G1 X85.366 Y103.818 E9.44808
G1 X85.571 Y104.451 E9.46634
G1 X85.855 Y105.053 E9.48461
G1 X86.211 Y105.615 E9.50286
G1 X86.636 Y106.128 E9.52114
G1 X87.120 Y106.584 E9.53939
G1 X87.659 Y106.975 E9.55766
G1 X88.243 Y107.296 E9.57595
G1 X88.861 Y107.541 E9.59419
G1 X89.507 Y107.706 E9.61248
G1 X90.166 Y107.790 E9.63071
G1 X90.833 Y107.790 E9.64902
G1 X91.492 Y107.706 E9.66725
G1 X92.138 Y107.541 E9.68554
G1 X92.756 Y107.296 E9.70378
G1 X93.340 Y106.975 E9.72207
G1 X93.879 Y106.584 E9.74034
G1 X94.363 Y106.128 E9.75859
G1 X94.788 Y105.615 E9.77687
G1 X95.144 Y105.053 E9.79512
G1 X95.428 Y104.451 E9.81339
G1 X95.633 Y103.818 E9.83165
G1 X95.758 Y103.164 E9.84992
G1 X95.801 Y102.500 E9.86818
G1 X95.758 Y101.835 E9.88646
G1 X95.633 Y101.181 E9.90473
G1 X95.428 Y100.548 E9.92299
G1 X95.144 Y99.946 E9.94125
G1 X94.788 Y99.384 E9.95951
G1 X94.363 Y98.871 E9.97779
G1 X93.879 Y98.415 E9.99604
G1 X93.340 Y98.024 E10.01431
G1 X92.756 Y97.703 E10.03260
G1 X92.138 Y97.458 E10.05084
G1 X91.492 Y97.293 E10.06913
G1 X90.833 Y97.209 E10.08736
G1 X90.166 Y97.209 E10.10566
G1 X89.507 Y97.293 E10.12389
G1 X88.861 Y97.458 E10.14219
G1 X88.243 Y97.703 E10.16043
G1 X87.659 Y98.024 E10.17872
G1 X87.120 Y98.415 E10.19699
G0 F9000 X86.848 Y98.125
G0 X82.827 Y93.192
G0 X82.427 Y93.190
G1 F1200 X82.435 Y92.927 E10.20421
G1 X82.468 Y92.800 E10.20781
G1 X127.200 Y92.800 E11.43526
G1 X127.200 Y110.203 E11.91281
G1 X92.354 Y110.203 E12.86899
G1 X92.049 Y110.244 E12.87743
G1 X91.771 Y110.318 E12.88533
G1 X91.518 Y110.419 E12.89280
G1 X91.251 Y110.568 E12.90119
G1 X91.019 Y110.739 E12.90910
G1 X90.823 Y110.924 E12.91649
G1 X90.638 Y111.147 E12.92445
G1 X90.484 Y111.391 E12.93236
G1 X90.361 Y111.652 E12.94028
G1 X90.271 Y111.927 E12.94822
G1 X90.219 Y112.200 E12.95585
G1 X82.428 Y112.200 E13.16963
G1 X82.427 Y93.190 E13.69127
G0 F9000 X83.237 Y93.843
;TYPE:SKIN
G1 F1200 X86.938 Y97.545 E13.83491
G0 F9000 X86.463 Y97.918
G1 F1200 X83.237 Y94.692 E13.96010
G0 F9000 X83.237 Y95.540
G1 F1200 X86.029 Y98.333 E14.06847
G0 F9000 X85.644 Y98.796
G1 F1200 X83.237 Y96.389 E14.16187
G0 F9000 X83.237 Y97.237
G1 F1200 X85.303 Y99.303 E14.24205
G0 F9000 X85.003 Y99.852
G1 F1200 X83.237 Y98.086 E14.31058
G0 F9000 X83.237 Y98.934
G1 F1200 X84.751 Y100.449 E14.36935
G0 F9000 X84.556 Y101.102
G1 F1200 X83.237 Y99.783 E14.42054
G0 F9000 X87.453 Y97.211
G1 F1200 X83.851 Y93.609 E14.56032
G0 F9000 X84.700 Y93.609
G1 F1200 X88.012 Y96.922 E14.68886
G0 F9000 X88.621 Y96.682
G1 F1200 X85.548 Y93.609 E14.80811
G0 F9000 X86.397 Y93.609
G1 F1200 X89.296 Y96.508 E14.92061
G0 F9000 X90.042 Y96.406
G1 F1200 X87.245 Y93.609 E15.02916
G0 F9000 X88.094 Y93.609
G1 F1200 X90.883 Y96.398 E15.13739
G0 F9000 X91.890 Y96.557
G1 F1200 X88.942 Y93.609 E15.25179
G0 F9000 X89.791 Y93.609
G1 F1200 X93.207 Y97.025 E15.38435
G0 F9000 X93.185 Y93.609
G1 F1200 X108.967 Y109.392 E15.99681
G0 F9000 X108.119 Y109.392
G1 F1200 X92.336 Y93.609 E16.60929
G0 F9000 X91.488 Y93.609
G1 F1200 X107.270 Y109.392 E17.22175
G0 F9000 X106.422 Y109.392
G1 F1200 X90.639 Y93.609 E17.83423
G0 F9000 X94.033 Y93.609
G1 F1200 X109.816 Y109.392 E18.44671
G0 F9000 X110.665 Y109.392
G1 F1200 X94.882 Y93.609 E19.05919
G0 F9000 X95.730 Y93.609
G1 F1200 X111.513 Y109.392 E19.67167
G0 F9000 X112.362 Y109.392
G1 F1200 X96.579 Y93.609 E20.28415
G0 F9000 X97.428 Y93.609
G1 F1200 X113.210 Y109.392 E20.89661
G0 F9000 X114.059 Y109.392
G1 F1200 X98.276 Y93.609 E21.50908
G0 F9000 X99.125 Y93.609
G1 F1200 X114.907 Y109.392 E22.12154
G0 F9000 X115.756 Y109.392
G1 F1200 X99.973 Y93.609 E22.73402
G0 F9000 X95.962 Y99.781
G1 F1200 X105.573 Y109.392 E23.10699
G0 F9000 X104.725 Y109.392
G1 F1200 X96.444 Y101.111 E23.42835
G0 F9000 X96.587 Y102.102
G1 F1200 X103.876 Y109.392 E23.71122
G0 F9000 X103.028 Y109.392
G1 F1200 X96.583 Y102.947 E23.96133
G0 F9000 X96.481 Y103.693
G1 F1200 X102.179 Y109.392 E24.18247
G0 F9000 X101.331 Y109.392
G1 F1200 X96.305 Y104.366 E24.37751
G0 F9000 X96.073 Y104.982
G1 F1200 X100.482 Y109.392 E24.54862
G0 F9000 X100.822 Y93.609
G1 F1200 X116.604 Y109.392 E25.16108
G0 F9000 X117.453 Y109.392
G1 F1200 X101.670 Y93.609 E25.77356
G0 F9000 X102.519 Y93.609
G1 F1200 X118.301 Y109.392 E26.38602
G0 F9000 X119.150 Y109.392
G1 F1200 X103.367 Y93.609 E26.99850
G0 F9000 X104.216 Y93.609
G1 F1200 X119.998 Y109.392 E27.61096
G0 F9000 X120.847 Y109.392
G1 F1200 X105.065 Y93.610 E28.22340
G0 F9000 X105.913 Y93.610
G1 F1200 X121.695 Y109.392 E28.83584
G0 F9000 X122.544 Y109.392
G1 F1200 X106.762 Y93.610 E29.44829
G0 F9000 X107.611 Y93.610
G1 F1200 X123.392 Y109.392 E30.06071
G0 F9000 X124.241 Y109.392
G1 F1200 X108.459 Y93.610 E30.67315
G0 F9000 X109.308 Y93.610
G1 F1200 X125.090 Y109.392 E31.28559
G0 F9000 X125.938 Y109.392
G1 F1200 X110.156 Y93.610 E31.89803
G0 F9000 X111.005 Y93.610
G1 F1200 X126.388 Y108.994 E32.49500
G0 F9000 X126.388 Y108.145
G1 F1200 X111.853 Y93.610 E33.05905
G0 F9000 X112.702 Y93.610
G1 F1200 X126.388 Y107.297 E33.59018
G0 F9000 X126.388 Y106.448
G1 F1200 X113.550 Y93.610 E34.08837
G0 F9000 X114.399 Y93.610
G1 F1200 X126.388 Y105.600 E34.55364
G0 F9000 X126.388 Y104.751
G1 F1200 X115.247 Y93.610 E34.98598
G0 F9000 X116.096 Y93.610
G1 F1200 X126.388 Y103.902 E35.38537
G0 F9000 X126.388 Y103.054
G1 F1200 X116.944 Y93.610 E35.75186
G0 F9000 X117.793 Y93.610
G1 F1200 X126.388 Y102.205 E36.08540
G0 F9000 X126.388 Y101.357
G1 F1200 X118.641 Y93.610 E36.38603
G0 F9000 X119.490 Y93.610
G1 F1200 X126.388 Y100.508 E36.65372
G0 F9000 X126.388 Y99.660
G1 F1200 X120.338 Y93.610 E36.88850
G0 F9000 X121.187 Y93.610
G1 F1200 X126.388 Y98.811 E37.09033
G0 F9000 X126.388 Y97.963
G1 F1200 X122.036 Y93.610 E37.25923
G0 F9000 X122.884 Y93.610
G1 F1200 X126.388 Y97.114 E37.39521
G0 F9000 X126.388 Y96.266
G1 F1200 X123.733 Y93.610 E37.49826
G0 F9000 X124.581 Y93.610
G1 F1200 X126.388 Y95.417 E37.56838
G0 F9000 X126.388 Y94.569
G1 F1200 X125.430 Y93.610 E37.60558
G0 F9000 X126.278 Y93.610
G1 F1200 X126.388 Y93.720 E37.60985
G0 F9000 X99.634 Y109.392
G1 F1200 X95.788 Y105.547 E37.75908
G0 F9000 X95.460 Y106.066
G1 F1200 X98.785 Y109.392 E37.88813
G0 F9000 X97.937 Y109.392
G1 F1200 X95.078 Y106.533 E37.99907
G0 F9000 X94.658 Y106.962
G1 F1200 X97.088 Y109.392 E38.09337
G0 F9000 X96.240 Y109.392
G1 F1200 X94.200 Y107.352 E38.17254
G0 F9000 X93.700 Y107.700
G1 F1200 X95.391 Y109.392 E38.23818
G0 F9000 X94.543 Y109.392
G1 F1200 X93.152 Y108.002 E38.29214
G0 F9000 X92.550 Y108.248
G1 F1200 X93.694 Y109.392 E38.33653
G0 F9000 X92.845 Y109.392
G1 F1200 X91.893 Y108.439 E38.37350
G0 F9000 X91.168 Y108.563
G1 F1200 X92.032 Y109.427 E38.40702
G0 F9000 X91.363 Y109.607
G1 F1200 X90.355 Y108.598 E38.44616
G0 F9000 X89.420 Y108.511
G1 F1200 X90.799 Y109.891 E38.49969
G0 F9000 X90.331 Y110.271
G1 F1200 X88.215 Y108.155 E38.58181
G0 F9000 X89.942 Y110.731
G1 F1200 X83.237 Y104.026 E38.84200
G0 F9000 X83.237 Y104.874
G1 F1200 X89.641 Y111.278 E39.09052
G0 F9000 X88.903 Y111.389
G1 F1200 X83.237 Y105.723 E39.31040
G0 F9000 X83.237 Y106.571
G1 F1200 X88.054 Y111.389 E39.49734
G0 F9000 X87.206 Y111.389
G1 F1200 X83.237 Y107.420 E39.65137
G0 F9000 X83.237 Y108.268
G1 F1200 X86.357 Y111.389 E39.77246
G0 F9000 X85.509 Y111.389
G1 F1200 X83.237 Y109.117 E39.86063
G0 F9000 X83.237 Y109.965
G1 F1200 X84.660 Y111.389 E39.91587
G0 F9000 X83.811 Y111.389
G1 F1200 X83.237 Y110.814 E39.93816
G0 F9000 X84.822 Y104.762
G1 F1200 X83.237 Y103.177 E39.99967
G0 F9000 X83.237 Y102.328
G1 F1200 X84.497 Y103.589 E40.04859
G0 F9000 X84.396 Y102.640
G1 F1200 X83.237 Y101.480 E40.09358
G0 F9000 X83.237 Y100.631
G1 F1200 X84.429 Y101.824 E40.13986
;LAYER:1
M106 S127
G0 F9000 X84.943 Y101.798 Z0.400
;TYPE:WALL-INNER
G1 F1620 X84.899 Y102.500 E40.14415
G1 X84.943 Y103.201 E40.14843
G1 X85.075 Y103.893 E40.15273
G1 X85.292 Y104.561 E40.15701
G1 X85.591 Y105.197 E40.16130
G1 X85.968 Y105.791 E40.16559
G1 X86.417 Y106.333 E40.16988
G1 X86.929 Y106.815 E40.17417
G1 X87.498 Y107.229 E40.17846
G1 X88.115 Y107.568 E40.18275
G1 X88.768 Y107.827 E40.18703
G1 X89.450 Y108.002 E40.19133
G1 X90.147 Y108.090 E40.19561
G1 X90.852 Y108.090 E40.19991
G1 X91.549 Y108.002 E40.20419
G1 X92.231 Y107.827 E40.20849
G1 X92.884 Y107.568 E40.21277
G1 X93.501 Y107.229 E40.21706
G1 X94.070 Y106.815 E40.22135
G1 X94.582 Y106.333 E40.22564
G1 X95.031 Y105.791 E40.22993
G1 X95.408 Y105.197 E40.23422
G1 X95.707 Y104.561 E40.23851
G1 X95.924 Y103.893 E40.24279
G1 X96.056 Y103.202 E40.24708
G1 X96.101 Y102.500 E40.25137
G1 X96.056 Y101.797 E40.25567
G1 X95.924 Y101.106 E40.25996
G1 X95.707 Y100.438 E40.26424
G1 X95.408 Y99.802 E40.26853
G1 X95.031 Y99.208 E40.27282
G1 X94.582 Y98.666 E40.27711
G1 X94.070 Y98.184 E40.28139
G1 X93.501 Y97.770 E40.28569
G1 X92.884 Y97.431 E40.28998
G1 X92.231 Y97.172 E40.29426
G1 X91.549 Y96.997 E40.29856
G1 X90.852 Y96.909 E40.30284
G1 X90.147 Y96.909 E40.30714
G1 X89.450 Y96.997 E40.31142
G1 X88.768 Y97.172 E40.31572
G1 X88.115 Y97.431 E40.32000
G1 X87.498 Y97.770 E40.32429
G1 X86.929 Y98.184 E40.32858
G1 X86.417 Y98.666 E40.33287
G1 X85.968 Y99.208 E40.33716
G1 X85.591 Y99.802 E40.34145
G1 X85.292 Y100.438 E40.34574
G1 X85.075 Y101.106 E40.35002
G1 X84.943 Y101.798 E40.35432
G0 F9000 X82.691 Y93.345
G1 F1620 X82.696 Y93.100 E40.35581
G1 X83.223 Y93.100 E40.35902
G1 X83.317 Y93.101 E40.35960
G1 X126.900 Y93.100 E40.62536
G1 X126.900 Y109.903 E40.72782
G1 X92.332 Y109.903 E40.93861
G1 X91.982 Y109.952 E40.94077
G1 X91.668 Y110.036 E40.94275
G1 X91.388 Y110.148 E40.94459
G1 X91.080 Y110.321 E40.94674
G1 X90.821 Y110.514 E40.94871
G1 X90.604 Y110.718 E40.95053
G1 X90.395 Y110.971 E40.95253
G1 X90.220 Y111.247 E40.95452
G1 X90.081 Y111.541 E40.95650
G1 X89.971 Y111.900 E40.95879
G1 X82.692 Y111.900 E41.00318
G1 X82.691 Y93.345 E41.11632
G0 F9000 X82.291 Y93.337
;TYPE:WALL-OUTER
G1 F1620 X82.300 Y92.912 E41.11892
G1 X82.347 Y92.728 E41.12007
G1 X82.361 Y92.700 E41.12026
G1 X83.228 Y92.700 E41.12555
G1 X83.319 Y92.701 E41.12611
G1 X127.300 Y92.700 E41.39429
G1 X127.300 Y110.303 E41.50163
G1 X92.360 Y110.303 E41.71469
G1 X92.061 Y110.345 E41.71653
G1 X91.795 Y110.416 E41.71821
G1 X91.561 Y110.509 E41.71975
G1 X91.299 Y110.657 E41.72158
G1 X91.078 Y110.821 E41.72326
G1 X90.896 Y110.993 E41.72479
G1 X90.719 Y111.206 E41.72648
G1 X90.571 Y111.440 E41.72816
G1 X90.454 Y111.689 E41.72984
G1 X90.368 Y111.952 E41.73153
G1 X90.316 Y112.224 E41.73322
G1 X90.311 Y112.300 E41.73368
G1 X82.292 Y112.300 E41.78258
G1 X82.291 Y93.337 E41.89821
G0 F9000 X82.591 Y93.332
G0 X87.009 Y98.250
G0 X87.184 Y98.493
G1 F1620 X86.709 Y98.940 E41.90219
G1 X86.292 Y99.443 E41.90618
G1 X85.942 Y99.995 E41.91016
G1 X85.665 Y100.585 E41.91414
G1 X85.463 Y101.206 E41.91812
G1 X85.340 Y101.848 E41.92210
G1 X85.300 Y102.500 E41.92609
G1 X85.340 Y103.151 E41.93006
G1 X85.463 Y103.793 E41.93405
G1 X85.665 Y104.414 E41.93803
G1 X85.942 Y105.004 E41.94201
G1 X86.292 Y105.556 E41.94599
G1 X86.709 Y106.059 E41.94998
G1 X87.184 Y106.506 E41.95395
G1 X87.713 Y106.890 E41.95794
G1 X88.286 Y107.205 E41.96193
G1 X88.892 Y107.446 E41.96590
G1 X89.525 Y107.608 E41.96989
G1 X90.172 Y107.690 E41.97386
G1 X90.827 Y107.690 E41.97786
G1 X91.474 Y107.608 E41.98184
G1 X92.107 Y107.446 E41.98582
G1 X92.713 Y107.205 E41.98980
G1 X93.286 Y106.890 E41.99378
G1 X93.815 Y106.506 E41.99777
G1 X94.290 Y106.059 E42.00175
G1 X94.707 Y105.556 E42.00573
G1 X95.057 Y105.004 E42.00972
G1 X95.334 Y104.414 E42.01369
G1 X95.536 Y103.793 E42.01767
G1 X95.659 Y103.151 E42.02166
G1 X95.700 Y102.500 E42.02564
G1 X95.659 Y101.848 E42.02962
G1 X95.536 Y101.206 E42.03361
G1 X95.334 Y100.585 E42.03759
G1 X95.057 Y99.995 E42.04156
G1 X94.707 Y99.443 E42.04555
G1 X94.290 Y98.940 E42.04953
G1 X93.815 Y98.493 E42.05351
G1 X93.286 Y98.109 E42.05750
G1 X92.713 Y97.794 E42.06148
G1 X92.107 Y97.553 E42.06546
G1 X91.474 Y97.391 E42.06944
G1 X90.827 Y97.309 E42.07342
G1 X90.172 Y97.309 E42.07742
G1 X89.525 Y97.391 E42.08139
G1 X88.892 Y97.553 E42.08538
G1 X88.286 Y97.794 E42.08935
G1 X87.713 Y98.109 E42.09334
G1 X87.184 Y98.493 E42.09733
G0 F9000 X87.837 Y97.424
;TYPE:SKIN
G1 F1620 X92.022 Y93.239 E42.13342
G0 F9000 X91.457 Y93.239
G1 F1620 X82.831 Y101.864 E42.20780
G0 F9000 X82.831 Y102.430
G1 F1620 X85.412 Y99.849 E42.23006
G0 F9000 X82.831 Y99.601
G1 F1620 X89.194 Y93.239 E42.28493
G0 F9000 X89.760 Y93.239
G1 F1620 X82.831 Y100.167 E42.34467
G0 F9000 X82.831 Y100.733
G1 F1620 X90.325 Y93.239 E42.40930
G0 F9000 X90.891 Y93.239
G1 F1620 X82.831 Y101.298 E42.47880
G0 F9000 X82.831 Y102.995
G1 F1620 X85.026 Y100.800 E42.49773
G0 F9000 X84.847 Y101.545
G1 F1620 X82.831 Y103.561 E42.51512
G0 F9000 X82.831 Y104.127
G1 F1620 X84.778 Y102.180 E42.53191
G0 F9000 X84.774 Y102.750
G1 F1620 X82.831 Y104.692 E42.54866
G0 F9000 X82.831 Y105.258
G1 F1620 X84.814 Y103.275 E42.56576
G0 F9000 X84.904 Y103.751
G1 F1620 X82.831 Y105.824 E42.58363
G0 F9000 X82.831 Y106.389
G1 F1620 X85.026 Y104.195 E42.60256
G0 F9000 X85.165 Y104.622
G1 F1620 X82.831 Y106.955 E42.62268
G0 F9000 X82.831 Y107.521
G1 F1620 X85.346 Y105.006 E42.64437
G0 F9000 X85.540 Y105.378
G1 F1620 X82.831 Y108.086 E42.66773
G0 F9000 X82.831 Y108.652
G1 F1620 X85.760 Y105.724 E42.69298
